!!!COA: des Prez, Josquin
!!!CDT: ~1450-1521/08/27
!!!COM: Carpentras
!!!OTL: Deus in nomine tuo
!!!AGN: Motet
!!!SCT: NJE 16.2
!!!SCA: New Josquin Edition 16.2
!!!voices: 4
!!!COM: des Prez, Josquin
!!!OTL: Jos1602-Deus,_in_nomine_tuo
**kern	**kern	**kern	**kern
*part4	*part3	*part2	*part1
*staff4	*staff3	*staff2	*staff1
*Ivox	*Ivox	*Ivox	*Ivox
*I"Bassus	*I"Tenor	*I"Altus	*I"Superius
*I'B	*I'T	*I'A	*I'S
*>[A,B]	*>[A,B]	*>[A,B]	*>[A,B]
*>A	*>A	*>A	*>A
*clefF4	*clefGv2	*clefGv2	*clefG2
*k[]	*k[]	*k[]	*k[]
*a:	*a:	*a:	*a:
*M2/1	*M2/1	*M2/1	*M2/1
*met(C|)	*met(C|)	*met(C|)	*met(C|)
!!section: Prima pars: Deus, in nomine tuo
=	=	=	=
0E	0E	0B	0e
=3	=3	=3	=3
1E	1G#X	1B	1e
1E	1G#Xi	1B	1e
=4	=4	=4	=4
1AA	1A	1c#X	1e
2AA	2A	2c#Xi	2e
2AA	2A	2c#Xi	2e
=5	=5	=5	=5
0GG	0B	0d	0g
=6	=6	=6	=6
0D	0A	1d	1f
.	.	[1f	1d
=7	=7	=7	=7
0AA	1A	1f]	2.a
.	.	.	4b
.	2A	[1e	2cc
.	[2A	.	2cc
=8	=8	=8	=8
1BB	2A]	1e]	0dd
.	4G#Xi	.	.
.	4F#Xi	.	.
1BB	1G#Xi	1d	.
=9	=9	=9	=9
[0AA	[0A	1f	[0cc#X
.	.	1e	.
=10	=10	=10	=10
0AA;]	0A;]	0e;	0cc#;]
=11	=11	=11	=11
0D	0A	0f	0a
=12	=12	=12	=12
1AA	1c	1e	1a
1AA	1c	1e	1a
=13	=13	=13	=13
1D	1d	1f	1a
1F	1A	1d	1a
=14	=14	=14	=14
0E	0B	0e	0g
=15	=15	=15	=15
0AA	0c	0e	0a
=16	=16	=16	=16
0GG	0d	1.g	0b
.	.	2f	.
=17	=17	=17	=17
1GG	1B	1e	1g
1GG	1B	1d	1g
=18	=18	=18	=18
0AA;	0A;	0c;	0e;
=19	=19	=19	=19
0r	1E	0r	0r
.	2E	.	.
.	2E	.	.
=20	=20	=20	=20
0r	1A	0r	1e
.	2G	.	2e
.	[2A	.	2e
=21	=21	=21	=21
0r	2A]	0r	1a
.	2c	.	.
.	2B	.	2g
.	2A	.	[2a
=22	=22	=22	=22
0r	2.c	0r	2a]
.	.	.	2cc
.	4d	.	.
.	2e	.	2b
.	[2f	.	[2a
=23	=23	=23	=23
0r	4f]	0r	2a]
.	4e	.	.
.	1e	.	2g
.	.	.	1f
.	2d	.	.
=24	=24	=24	=24
1AA	1e	0r	0e
2AA	1r	.	.
2AA	.	.	.
=25	=25	=25	=25
1D	0r	1A	0r
2C	.	2A	.
[2D	.	2A	.
=26	=26	=26	=26
2D]	0r	1d	0r
2F	.	.	.
2E	.	2c	.
2D	.	[2d	.
=27	=27	=27	=27
2.F	0r	2d]	0r
.	.	2f	.
4G	.	.	.
2A	.	2e	.
4D	.	[2d	.
4E	.	.	.
=28	=28	=28	=28
4F	0r	2d]	1r
4D	.	.	.
1A	.	2c	.
.	.	1B	1e
2G#Xi	.	.	.
=29	=29	=29	=29
1A	1A	0A	2e
.	.	.	2e
1D	2A	.	2f
.	2A	.	2f
=30	=30	=30	=30
2.G	2B	0r	1d
.	2B	.	.
4F	.	.	.
2E	1G	.	[1g
2D	.	.	.
=31	=31	=31	=31
0C	1.c	0r	2g]
.	.	.	2f
.	.	.	2e
.	2B	.	2d
=32	=32	=32	=32
1F	1A	0r	2.c
.	.	.	4d
2E	2G	.	4e
.	.	.	4d
[2D	[2A	.	[2f
=33	=33	=33	=33
2D]	4A]	0r	4f]
.	4G	.	4e
2C	2E	.	1e
1D	1F	.	.
.	.	.	2d
=34	=34	=34	=34
1G	0E	1r	0e
1r	.	1B	.
=35	=35	=35	=35
1E	0r	2B	0r
.	.	2B	.
2E	.	2c	.
2E	.	2c	.
=36	=36	=36	=36
2F	0r	1A	0r
2F	.	.	.
1D	.	[1d	.
=37	=37	=37	=37
1.G	0r	2d]	0r
.	.	2c	.
.	.	2B	.
2F	.	2A	.
=38	=38	=38	=38
2E	0r	2.G	0r
2C	.	.	.
.	.	4A	.
2D	.	4B	.
.	.	4A	.
2E	.	[2c	.
=39	=39	=39	=39
2AA	0r	4c]	1r
.	.	4B	.
2C	.	1A	.
1BB	.	.	1d
.	.	2G#Xi	.
=40	=40	=40	=40
0AA	0r	1A	2f
.	.	.	2f
.	.	1r	2e
.	.	.	2c
=41	=41	=41	=41
0r	1D	0r	2.f
.	.	.	4g
.	2F	.	1a
.	2F	.	.
=42	=42	=42	=42
0r	2E	0r	2r
.	2C	.	2g
.	2.F	.	2a
.	.	.	[2cc
.	4G	.	.
=43	=43	=43	=43
0r	1A	0r	2cc]
.	.	.	4b
.	.	.	4a
.	2r	.	1b
.	2G	.	.
=44	=44	=44	=44
0r	2A	0r	2.a
.	1c	.	.
.	.	.	8gL
.	.	.	8fJ
.	.	.	2e
.	4B	.	[2a
.	4A	.	.
=45	=45	=45	=45
1GG	1B	0r	2a]
.	.	.	2g
2AA	2.A	.	2f
[2C	.	.	[2e
.	8GL	.	.
.	8FJ	.	.
=46	=46	=46	=46
2C]	2E	0r	2e]
4BB	1A	.	4d
4AA	.	.	4c
1BB	.	.	1d
.	2G#Xi	.	.
=47	=47	=47	=47
1AA	1A	1r	1c
1A	2r	1c	2.e
.	2A	.	.
.	.	.	4f
=48	=48	=48	=48
2G	2B	2d	2g
2F	2c	1f	1a
1D	1d	.	.
.	.	4e	2b
.	.	4d	.
=49	=49	=49	=49
2.A	2r	1e	2.cc
.	1A	.	.
4G	.	.	8bL
.	.	.	8ccJ
2F	.	2d	1dd
2D	[2A	[2f	.
=50	=50	=50	=50
1E	2A]	4f]	2cc
.	.	4e	.
.	2G	1e	2.b
1F	1A	.	.
.	.	.	4a
.	.	2d	[2a
=51	=51	=51	=51
1E	1B	1e	2a]
.	.	.	2g#Xi
[1AA	[1A	2r	1a
.	.	2c	.
=52	=52	=52	=52
1AA]	1A]	2c	2r
.	.	2c	2e
1r	1r	2d	2f
.	.	2d	2f
=53	=53	=53	=53
2r	1r	1e	2g
2E	.	.	2g
2F	2r	1A	1a
2F	2A	.	.
=54	=54	=54	=54
2G	2B	1r	1d
2G	2B	.	.
1A	2c	1e	2r
.	2c	.	2a
=55	=55	=55	=55
1D	1d	2f	2a
.	.	2f	2a
1r	1G	1g	1b
=56	=56	=56	=56
0r	1d	2f	2a
.	.	1a	2f
.	2d	.	2f
.	2d	[2d	2f
=57	=57	=57	=57
1r	1e	4d]	2g
.	.	4B	.
.	.	2c	2g
1D	1d	2.F	1a
.	.	4G	.
=58	=58	=58	=58
2F	2r	4A	2d
.	.	4B	.
2F	2c	4c	1a
.	.	4d	.
1E	2c	4e	.
.	.	4f	.
.	2c	2e	[2g
=59	=59	=59	=59
1D	2d	1A	2g]
.	2d	.	2f
2r	1e	2c	2g
2C	.	[2c	2g
=60	=60	=60	=60
2F	1A	2c]	1a
2F	.	2.d	.
2G	2B	.	1d
.	.	4G	.
2G	[2d	[2g	.
=61	=61	=61	=61
1A	2d]	2g]	0a
.	2c	4f	.
.	.	4e	.
1D	1d	1f	.
=62	=62	=62	=62
1G	1B	1.g	0b
1E	2.e	.	.
.	.	2f	.
.	4d	.	.
=63	=63	=63	=63
1A	2c	2e	1cc
.	2B	2d	.
2A	2A	2c	[1f
2G	[2d	2B	.
=64	=64	=64	=64
2F	4d]	2A	1f]
.	4c	.	.
2D	4B	1d	.
.	4A	.	.
1E	2.G	.	1g
.	.	2c#Xi	.
.	4A	.	.
=65	=65	=65	=65
1D	2B	1d	1f
.	2.A	.	.
1r	.	1r	[1a
.	4G	.	.
.	4F	.	.
.	4E	.	.
=66	=66	=66	=66
0D	1F	0d	2a]
.	.	.	2g
.	2r	.	2f
.	[2A	.	2e
=67	=67	=67	=67
1D	2A]	1d	1f
.	2A	.	.
1D	1A	1d	1f
=68	=68	=68	=68
1AA	1A	1c	1e
1D	1A	[1d	1f#X
=69	=69	=69	=69
0GG	0B	1d]	0g
.	.	1d	.
=70	=70	=70	=70
0D	1A	0f	0a
.	2.d	.	.
.	4c	.	.
=71	=71	=71	=71
1E	2B	1e	1g
.	2G	.	.
1F	1A	1d	2f
.	.	.	[2a
=72	=72	=72	=72
0C	0c	0e	2a]
.	.	.	2g
.	.	.	1g
=73	=73	=73	=73
0G	0B	1r	1r
.	.	1d	1g
=74	=74	=74	=74
1.G	1.B	1.d	1.g
2G	2B	2d	2g
=75	=75	=75	=75
1G	1B	1d	1g
1E	1G	1c	1g
=76	=76	=76	=76
1F	1.A	2.d	2.f
.	.	4e	4g
2D	.	4f	2a
.	.	4d	.
[2G	[2B	[2e	[2g
=77	=77	=77	=77
4G]	4B]	4e]	2g]
4F	4A	4d	.
4E	1A	1d	2f
4D	.	.	.
1E	.	.	2g
.	2G	2c#Xi	2e
=78	=78	=78	=78
0D	0A	1d	2.f
.	.	.	4g
.	.	[1f	1a
=79	=79	=79	=79
1.F	1.A	2f]	1d
.	.	2e	.
.	.	2d	[1a
2E	2G	2c	.
=80	=80	=80	=80
1D	1F	1d	2a]
.	.	.	2b
1AA	1E	2e	1cc
.	.	[2A	.
=81	=81	=81	=81
0BB	0D	2A]	0dd
.	.	4G#Xi	.
.	.	4F#Xi	.
.	.	1G#Xi	.
=82	=82	=82	=82
0AA	0E	0A	0cc#X
=83	=83	=83	=83
0r	0r	1d	0r
.	.	1d	.
=84	=84	=84	=84
0r	0r	2d	1a
.	.	1d	.
.	.	.	1a
.	.	4c	.
.	.	4B	.
=85	=85	=85	=85
0r	0r	2c	2a
.	.	2.d	1a
.	.	4c	.
.	.	4B	4g
.	.	4A	4f
=86	=86	=86	=86
0r	0r	2B	2g
.	.	2A	2.a
.	.	1d	.
.	.	.	4g
.	.	.	4f
.	.	.	4e
=87	=87	=87	=87
0r	0r	2d	2f
.	.	2.c	1e
.	.	4B	.
.	.	4A	[2a
.	.	4G	.
=88	=88	=88	=88
0r	0r	4F	2a]
.	.	4G	.
.	.	4A	1a
.	.	4B	.
.	.	4c	.
.	.	4d	.
.	.	4e	[2g
.	.	4f	.
=89	=89	=89	=89
0r	0r	2e	2g]
.	.	1d	2f
.	.	.	1e
.	.	2c#Xi	.
=90	=90	=90	=90
1D	0r	1d	0d
1D	.	1r	.
=91	=91	=91	=91
2D	1A	0r	0r
1D	.	.	.
.	1A	.	.
4C	.	.	.
4BB	.	.	.
=92	=92	=92	=92
2C	2A	0r	0r
2.D	1A	.	.
4C	.	.	.
4BB	4G	.	.
4AA	4F	.	.
=93	=93	=93	=93
2BB	2G	0r	0r
2AA	2.A	.	.
1D	.	.	.
.	4G	.	.
.	4F	.	.
.	4E	.	.
=94	=94	=94	=94
2D	2F	0r	0r
1C	1E	.	.
2AA	[2A	.	.
=95	=95	=95	=95
2.D	2A]	0r	0r
.	1A	.	.
4E	.	.	.
2F	.	.	.
[2E	[2G	.	.
=96	=96	=96	=96
4E]	2G]	0r	0r
4D	.	.	.
1D	2F	.	.
.	1E	.	.
2C#Xi	.	.	.
=97	=97	=97	=97
0D	1D	1.d	1.a
.	1r	.	.
.	.	2d	2a
=98	=98	=98	=98
0r	0r	1f	1a
.	.	1e	1g
=99	=99	=99	=99
0r	0r	1c#X	1a
.	.	1d	2a
.	.	.	[2a
=100	=100	=100	=100
0r	0r	1B	2a]
.	.	.	2g
.	.	1A	2.f
.	.	.	4e
=101	=101	=101	=101
0r	0r	2r	1e
.	.	2G	.
.	.	2A	2r
.	.	2B	2d
=102	=102	=102	=102
0r	0r	2c	2e
.	.	2.d	2.f
.	.	4c	4g
.	.	4A	[2a
.	.	4B	.
=103	=103	=103	=103
0r	0r	2.c	4a]
.	.	.	4g
.	.	.	4e
.	.	4B	4f
.	.	4G	4g
.	.	4A	4f
.	.	4B	4d
.	.	4c	4e
=104	=104	=104	=104
0r	0r	4d	4f
.	.	4e	4g
.	.	4f	4a
.	.	4d	4b
.	.	4e	2cc
.	.	4c	.
.	.	[2d	[2b
=105	=105	=105	=105
0r	0r	4d]	4b]
.	.	4A	4a
.	.	2c	1a
.	.	1B	.
.	.	.	2g#Xi
=106	=106	=106	=106
1.D	1.A	1A	0a
.	.	1r	.
2D	2A	.	.
=107	=107	=107	=107
1F	1A	0r	0r
1E	1G	.	.
=108	=108	=108	=108
1C#X	1A	0r	0r
1D	2A	.	.
.	[2A	.	.
=109	=109	=109	=109
1BB	2A]	0r	0r
.	2G	.	.
1AA	2.F	.	.
.	4E	.	.
=110	=110	=110	=110
2r	1E	0r	0r
2GG	.	.	.
2AA	2r	.	.
2BB	2D	.	.
=111	=111	=111	=111
2C	2E	0r	0r
2.D	2.F	.	.
4C	4G	.	.
4AA	[2A	.	.
4BB	.	.	.
=112	=112	=112	=112
2.C	4A]	0r	0r
.	4G	.	.
.	4E	.	.
4BB	4F	.	.
4GG	4G	.	.
4AA	4F	.	.
4BB	4D	.	.
4C	4E	.	.
=113	=113	=113	=113
4D	4F	0r	0r
4E	4G	.	.
4F	4A	.	.
4D	4B	.	.
1E	2c	.	.
.	[2B	.	.
=114	=114	=114	=114
2D	4B]	0r	0r
.	4A	.	.
2C	1A	.	.
1BB	.	.	.
.	2G#Xi	.	.
=115	=115	=115	=115
1AA	0A	0r	1e
1D	.	.	2f
.	.	.	2d
=116	=116	=116	=116
2.C	2r	0r	2e
.	2A	.	2c
4BB	.	.	.
1GG	2B	.	2d
.	2G	.	2e
=117	=117	=117	=117
1D	2A	1r	1A
.	2F	.	.
1r	2G	1e	1r
.	2A	.	.
=118	=118	=118	=118
0r	1D	2f	1a
.	.	2d	.
.	1r	2e	2g
.	.	2c	2e
=119	=119	=119	=119
2r	1r	2d	2f
2E	.	2e	2g
2F	2.d	1A	1a
2D	.	.	.
.	4c	.	.
=120	=120	=120	=120
2E	2B	1e	2g
2C	1A	.	2.cc
2D	.	2d	.
.	.	.	4b
2E	2G	2B	[2b
=121	=121	=121	=121
1AA	2A	2.c	2b]
.	2c	.	1a
.	.	4d	.
2r	2.B	1e	.
2E	.	.	2g
.	4G	.	.
=122	=122	=122	=122
2D	1d	2A	1f
2BB	.	2d	.
2C	2.A	2e	2e
2D	.	2f	[2a
.	4B	.	.
=123	=123	=123	=123
1E	4c	1e	2a]
.	4A	.	.
.	2B	.	2g
2AA	2c	2e	2a
2D	2B	2f	[2b
=124	=124	=124	=124
2E	2G	2e	4b]
.	.	.	4a
2F	2A	2d	1a
1E	1B	1e	.
.	.	.	2g#Xi
=125	=125	=125	=125
0AA;l	0A;l	0e;l	0a;l
!!LO:LB:i:g=z
=126||	=126||	=126||	=126||
*>B	*>B	*>B	*>B
*clefF4	*clefGv2	*clefGv2	*clefG2
*k[]	*k[]	*k[]	*k[]
*M2/1	*M2/1	*M2/1	*M2/1
*met(C|)	*met(C|)	*met(C|)	*met(C|)
!!section: Secunda pars: Voluntarie sacrificabo
!!!OMD: Secunda pars: Voluntarie sacrificabo
0r	0r	0r	1.a
.	.	.	2a
=127	=127	=127	=127
0r	0r	0r	1cc
.	.	.	1b
=128	=128	=128	=128
0r	0r	1.d	1a
.	.	.	1dd
.	.	2d	.
=129	=129	=129	=129
0r	0r	1f	2cc
.	.	.	2a
.	.	1e	1cc
=130	=130	=130	=130
0r	0r	1d	2b
.	.	.	2a
.	.	1g	1b
=131	=131	=131	=131
0r	1r	2f	2.a
.	.	2d	.
.	.	.	4g
.	[1A	1f	4a
.	.	.	4b
.	.	.	[2cc
=132	=132	=132	=132
0r	2A]	2.e	4cc]
.	.	.	4b
.	2A	.	2a
.	.	4d	.
.	1c	1e	4g
.	.	.	4e
.	.	.	[2a
=133	=133	=133	=133
1r	1B	1d	2a]
.	.	.	2g#Xi
[1D	1A	1r	[1a
=134	=134	=134	=134
2D]	1d	0r	1a]
2D	.	.	.
1F	2c	.	1r
.	2A	.	.
=135	=135	=135	=135
1E	1c	0r	0r
1D	2B	.	.
.	2A	.	.
=136	=136	=136	=136
1G	1B	0r	1r
2F	2A	.	1a
2D	[2d	.	.
=137	=137	=137	=137
1F	4d]	0r	2a
.	4c	.	.
.	4A	.	2a
.	4B	.	.
2.E	2c	.	1g
.	[2d	.	.
4D	.	.	.
=138	=138	=138	=138
1E	2d]	1r	2g
.	2c#Xi	.	2e
[1D	1d	1d	2f
.	.	.	2d
=139	=139	=139	=139
1D]	1r	2d	1f
.	.	2d	.
1r	1A	1c	1e
=140	=140	=140	=140
0r	2A	2c	1a
.	2A	2A	.
.	1G	2B	2d
.	.	2G	[2d
=141	=141	=141	=141
1r	2G	1B	2d]
.	2E	.	2g
1D	2F	2A	2a
.	2D	[2d	[2b
=142	=142	=142	=142
2D	1F	4d]	4b]
.	.	4c	4a
2D	.	4A	1a
.	.	4B	.
1C	1E	4c	.
.	.	4d	.
.	.	[2e	4g
.	.	.	4f
=143	=143	=143	=143
2C	1A	2e]	2e
2AA	.	2c	2.f
2BB-X	2D	[1d	.
.	.	.	4d
2GG	[2D	.	[2g
=144	=144	=144	=144
1BB-Xi	2D]	1d]	4g]
.	.	.	4f
.	2G	.	4e
.	.	.	4d
1AA	1A	1r	2c
.	.	.	[2a
=145	=145	=145	=145
1D	1F	2.d	2a]
.	.	.	2d
.	.	4c	.
2GG	1G	2.B	2d
[2GG	.	.	[2g
.	.	4A	.
=146	=146	=146	=146
2GG]	1B	2G	4g]
.	.	.	4f
1D	.	2F	2d
.	2.A	1E	1e
2C	.	.	.
.	4G	.	.
=147	=147	=147	=147
2D	2F	1D	2f
2GG	2E	.	2.g
1BB	1D	1d	.
.	.	.	4f
.	.	.	4e
.	.	.	4d
=148	=148	=148	=148
2AA	1A	2e	2c
1D	.	1f	1d
.	2F	.	.
2C	[2G	[2e	2e
=149	=149	=149	=149
1BB	4G]	4e]	2f
.	4F	4d	.
.	2D	1d	2g
1AA	1E	.	1a
.	.	2c#Xi	.
=150	=150	=150	=150
[0D	0D	1d	1a
.	.	1r	2r
.	.	.	[2a
=151	=151	=151	=151
0D]	0r	1.d	2a]
.	.	.	2a
.	.	.	1f
.	.	2d	.
=152	=152	=152	=152
0r	0r	2B	1g
.	.	1c	.
.	.	.	1a
.	.	[2d	.
=153	=153	=153	=153
0r	0r	2d]	2d
.	.	2G	1e
.	.	1A	.
.	.	.	2f
=154	=154	=154	=154
0r	0r	2B	2g
.	.	2c	2a
.	.	2d	1f
.	.	[2A	.
=155	=155	=155	=155
0r	0r	4A]	1e
.	.	4B	.
.	.	2.c	.
.	.	.	1a
.	.	4B	.
.	.	4A	.
.	.	4G	.
=156	=156	=156	=156
0r	0r	2F	2a
.	.	1f	2a
.	.	.	1g
.	.	[2e	.
=157	=157	=157	=157
0r	0r	2e]	2.cc
.	.	2c	.
.	.	.	8bL
.	.	.	8ccJ
.	.	2d	4b
.	.	.	4a
.	.	2A	[2a
=158	=158	=158	=158
0r	0r	1B	2a]
.	.	.	2g#Xi
.	.	1A	[1a
=159	=159	=159	=159
1r	1.A	0r	1a]
[1D	.	.	1r
.	2A	.	.
=160	=160	=160	=160
2D]	1F	0r	0r
2D	.	.	.
2BB	1G	.	.
[2C	.	.	.
=161	=161	=161	=161
2C]	1A	0r	0r
1D	.	.	.
.	2D	.	.
2GG	[2E	.	.
=162	=162	=162	=162
1AA	2E]	0r	0r
.	2F	.	.
2BB	2G	.	.
2C	2A	.	.
=163	=163	=163	=163
2D	1F	0r	0r
2.AA	.	.	.
.	1E	.	.
4BB	.	.	.
[2C	.	.	.
=164	=164	=164	=164
4C]	1A	0r	0r
4BB	.	.	.
4AA	.	.	.
4GG	.	.	.
2FF	2A	.	.
[2C	2A	.	.
=165	=165	=165	=165
4C]	1G	0r	0r
4D	.	.	.
1E	.	.	.
.	2.c	.	.
2C	.	.	.
.	8BL	.	.
.	8cJ	.	.
=166	=166	=166	=166
2D	4B	0r	0r
.	4A	.	.
2AA	1A	.	.
1BB	.	.	.
.	2G#Xi	.	.
=167	=167	=167	=167
1AA	1A	0r	0r
1D	2r	.	.
.	2A	.	.
=168	=168	=168	=168
1C#X	2A	0r	0r
.	2A	.	.
2D	2B	.	.
[2F	[2A	.	.
=169	=169	=169	=169
2F]	4A]	1r	0r
.	4G	.	.
2F	8AL	.	.
.	8G	.	.
.	8F	.	.
.	8EJ	.	.
2F	2D	1d	.
2F	[2A	.	.
=170	=170	=170	=170
1E	2A]	1c	0r
.	2G	.	.
[1D	2.F	2d	.
.	.	[2f	.
.	4G	.	.
=171	=171	=171	=171
1D]	2A	2f]	1r
.	2B-Xi	2f	.
1r	2A	2f	1a
.	2D	2f	.
=172	=172	=172	=172
0r	2r	1e	1g
.	2E	.	.
.	2.F	2d	2a
.	.	[2A	[2cc
.	4G	.	.
=173	=173	=173	=173
0r	1A	4A]	2cc]
.	.	4B	.
.	.	4c	2cc
.	.	4d	.
.	2r	4e	2cc
.	.	4f	.
.	[2A	[2e	2cc
=174	=174	=174	=174
0r	2A]	4e]	1b
.	.	4d	.
.	2G	2e	.
.	2A	2c	1a
.	[2c	[2e	.
=175	=175	=175	=175
1r	2c]	2e]	1r
.	2c	1A	.
1AA	2c	.	1a
.	2c	[2e	.
=176	=176	=176	=176
1GG	1B	2e]	1dd
.	.	2d	.
2AA	1A	2f	2.cc
[2C	.	[2e	.
.	.	.	4b
=177	=177	=177	=177
2C]	1r	4e]	2a
.	.	4d	.
2C	.	2.c	4g
.	.	.	4f
2C	1A	.	1e
.	.	4B	.
2C	.	[2A	.
=178	=178	=178	=178
1BB	1d	2A]	1r
.	.	2G#Xi	.
1AA	1c	1A	1e
=179	=179	=179	=179
1r	1d	1D	2f
.	.	.	2f
1AA	2A	2r	1e
.	[2c	2E	.
=180	=180	=180	=180
1D	2c]	2F	1d
.	2B	2F	.
1C	2A	1E	1r
.	[2G	.	.
=181	=181	=181	=181
1D	2G]	2D	1a
.	2.F	1d	.
2BB	.	.	1dd
.	4D	.	.
2GG	[2G	2B	.
=182	=182	=182	=182
1AA	2G]	2.c	1cc
.	2F#Xi	.	.
.	.	4d	.
1GG	2G	2e	1b
.	2D	[2d	.
=183	=183	=183	=183
1r	2.F	4d]	2a
.	.	4c	.
.	.	4A	1cc
.	4G	4B	.
2r	2A	4c	.
.	.	4d	.
2G	2B	4e	2b
.	.	8dL	.
.	.	8eJ	.
=184	=184	=184	=184
2F	2c	1f	2a
2D	2d	.	2.b
1E	1G	2e	.
.	.	.	4a
.	.	2c	[2g
=185	=185	=185	=185
1D	1A	1d	2g]
.	.	.	2f#Xi
2r	[1G	1d	[1g
[2GG	.	.	.
=186	=186	=186	=186
4GG]	1G]	1r	1g]
4AA	.	.	.
4BB	.	.	.
4C	.	.	.
4D	1r	1d	1r
4E	.	.	.
[2F	.	.	.
=187	=187	=187	=187
4F]	0r	1c	0r
4E	.	.	.
2E	.	.	.
1D	.	2d	.
.	.	[2f	.
=188	=188	=188	=188
1A	2r	2f]	0r
.	2.D	2f	.
1D	.	2f	.
.	4E	.	.
.	4F	2f	.
.	4G	.	.
=189	=189	=189	=189
2r	4A	1e	0r
.	4B	.	.
2C	2.c	.	.
1G	.	1d	.
.	4B	.	.
.	2B	.	.
=190	=190	=190	=190
1F	1A	2r	0r
.	.	2d	.
1E	2r	1g	.
.	2G	.	.
=191	=191	=191	=191
1D	1d	1f	0r
1A	1c	1e	.
=192	=192	=192	=192
2r	2B	2d	0r
1D	1A	1f	.
2E	2G	2e	.
=193	=193	=193	=193
2F	2A	2d	0r
2G	2B	2.e	.
1C	1c	.	.
.	.	4d	.
.	.	[2c	.
=194	=194	=194	=194
1D	1F	2c]	1d
.	.	2B	.
2AA	2E	2c	1a
[2D	2F	2A	.
=195	=195	=195	=195
2D]	1G	2B	1g
2C	.	2c	.
2.F	1D	1d	1f
4E	.	.	.
=196	=196	=196	=196
2C	2A	2e	2e
2E	2G	2c	1g
2.D	2.A	1d	.
.	.	.	2f
4C	4B	.	.
=197	=197	=197	=197
2AA	2c	2e	2e
2D	2.d	2A	2.f
2E	.	2c	.
.	4c	.	4e
2F	4B	2d	[2a
.	4A	.	.
=198	=198	=198	=198
1E	1B	1e	2a]
.	.	.	2g#Xi
[1AA	[1A	1e	1a
=199	=199	=199	=199
0AA_	0A_	1r	1r
.	.	1c	1e
=200	=200	=200	=200
1AA]	1A]	2c	2e
.	.	2c	2e
1r	1r	1c	1a
=201	=201	=201	=201
0r	0r	1B	1g
.	.	[1A	2a
.	.	.	[2cc
=202	=202	=202	=202
0r	0r	2A]	2cc]
.	.	2B	2b
.	.	2c	1a
.	.	2d	.
=203	=203	=203	=203
0r	0r	1e	1g
.	.	2c	2r
.	.	[2d	[2a
=204	=204	=204	=204
0r	0r	2d]	2a]
.	.	4c	2a
.	.	4B	.
.	.	1A	2a
.	.	.	2a
=205	=205	=205	=205
0r	0r	2r	2a
.	.	2A	4g
.	.	.	4f
.	.	2c	2e
.	.	2d	2f
=206	=206	=206	=206
0r	0r	2e	2g
.	.	2.f	2.a
.	.	4e	4g
.	.	[2e	4f
.	.	.	4e
=207	=207	=207	=207
0r	0r	2e]	2.f
.	.	2d	.
.	.	.	8eL
.	.	.	8dJ
.	.	2.e	2.c
.	.	4d	4d
=208	=208	=208	=208
0r	0r	2c	4e
.	.	.	4f
.	.	4B	4g
.	.	4A	4a
.	.	2G	2b
.	.	[2A	[2cc
=209	=209	=209	=209
0r	0r	2A]	4cc]
.	.	.	4b
.	.	2c	1a
.	.	1B	.
.	.	.	2g#Xi
=210	=210	=210	=210
1r	1r	0A	0a
1AA	1E	.	.
=211	=211	=211	=211
2C	2E	0r	0r
2C	2E	.	.
1C	1A	.	.
=212	=212	=212	=212
1BB	1G	0r	0r
[1AA	2A	.	.
.	[2c	.	.
=213	=213	=213	=213
2AA]	2c]	0r	0r
2BB	2B	.	.
2C	1A	.	.
2D	.	.	.
=214	=214	=214	=214
1E	1G	0r	0r
2C	2r	.	.
[2D	[2A	.	.
=215	=215	=215	=215
2D]	2A]	0r	0r
4C	2A	.	.
4BB	.	.	.
1AA	2A	.	.
.	2A	.	.
=216	=216	=216	=216
2r	2A	0r	0r
2AA	4G	.	.
.	4F	.	.
2C	2E	.	.
2D	2F	.	.
=217	=217	=217	=217
2E	2G	0r	0r
2.F	2.A	.	.
4E	4G	.	.
[2E	4F	.	.
.	4E	.	.
=218	=218	=218	=218
2E]	2.F	0r	0r
2D	.	.	.
.	8EL	.	.
.	8DJ	.	.
2.E	2.C	.	.
4D	4D	.	.
=219	=219	=219	=219
2C	4E	0r	0r
.	4F	.	.
4BB	4G	.	.
4AA	4A	.	.
2GG	2B	.	.
[2AA	[2c	.	.
=220	=220	=220	=220
2AA]	4c]	0r	0r
.	4B	.	.
2C	1A	.	.
1BB	.	.	.
.	2G#Xi	.	.
=221	=221	=221	=221
0AA	0A	0e	0r
=222	=222	=222	=222
0r	0r	1d	0a
.	.	1d	.
=223	=223	=223	=223
0r	0r	0e	1g
.	.	.	1g
=224	=224	=224	=224
0r	0r	1.A	1a
.	.	.	[1e
.	.	2A	.
=225	=225	=225	=225
0r	0r	1c	2e]
.	.	.	2e
.	.	1B	1g
=226	=226	=226	=226
0r	0r	1A	1f
.	.	1c	1e
=227	=227	=227	=227
0r	0r	2c	1g
.	.	1c	.
.	.	.	2g
.	.	4B	[2g
.	.	4A	.
=228	=228	=228	=228
0r	0r	2.G	2g]
.	.	.	4f
.	.	4A	4e
.	.	4B	2.d
.	.	4c	.
.	.	[2d	.
.	.	.	4e
=229	=229	=229	=229
0r	0r	2d]	4f
.	.	.	4g
.	.	2c	1a
.	.	2d	.
.	.	2e	2g
=230	=230	=230	=230
0r	0r	1.f	2a
.	.	.	2b
.	.	.	[1cc
.	.	4e	.
.	.	4d	.
=231	=231	=231	=231
0E	0r	2.c	2cc]
.	.	.	4b
.	.	4d	4a
.	.	1e	1g
=232	=232	=232	=232
1D	0A	2.f	2.a
.	.	4e	4g
1D	.	2d	1f
.	.	2c	.
=233	=233	=233	=233
0E	1G	1B	1e
.	1G	[1e	1b
=234	=234	=234	=234
1.AA	1A	1e]	1.cc
.	[1E	1c	.
2AA	.	.	4b
.	.	.	4a
=235	=235	=235	=235
1C	2E]	1e	2.g
.	2E	.	.
.	.	.	4a
1BB	1G	1d	2b
.	.	.	2b
=236	=236	=236	=236
1AA	1F	2r	1.cc
.	.	1c	.
1C	1E	.	.
.	.	2c	4b
.	.	.	4a
=237	=237	=237	=237
2C	1G	2c	1g
1C	.	4B	.
.	.	4A	.
.	2G	2.G	1cc
4BB	[2G	.	.
4AA	.	4A	.
=238	=238	=238	=238
2.GG	2G]	4B	0b
.	.	4c	.
.	4F	2.d	.
4AA	4E	.	.
4BB	2.D	.	.
4C	.	4e	.
[2D	.	[2f	.
.	4E	.	.
=239	=239	=239	=239
2D]	4F	2f]	1a
.	4G	.	.
2C	1A	2e	.
2D	.	2e	1r
2E	2G	2e	.
=240	=240	=240	=240
1.F	2A	1.c	1.a
.	2B	.	.
.	[1c	.	.
4E	.	2d	2a
4D	.	.	.
=241	=241	=241	=241
2C	2c]	1e	1cc
2D	4B	.	.
.	4A	.	.
1E	1G#X	2r	1b
.	.	[2e	.
=242	=242	=242	=242
0AA	2r	2e]	1a
.	1A	2c	.
.	.	2f	[1a
.	2A	2e	.
=243	=243	=243	=243
0E	1c	0e	1a]
.	1B	.	1g
=244	=244	=244	=244
1F	0A	1.c	1a
1F	.	.	[1cc
.	.	2d	.
=245	=245	=245	=245
0C	0r	0e	2cc]
.	.	.	2b
.	.	.	2a
.	.	.	2g
=246	=246	=246	=246
0D	1r	1A	2f
.	.	.	2e
.	[1A	1d	1f
=247	=247	=247	=247
1AA	1A]	1c	0e
1E	1G	2.B	.
.	.	4c	.
=248	=248	=248	=248
2D	1A	2d	2r
1C	.	2e	1a
.	[1c	2A	.
2AA	.	[2e	2a
=249	=249	=249	=249
1E	2c]	4e]	1g
.	.	4d	.
.	2B	2e	.
2F	2A	1c	2f
2C	2G	.	[2e
=250	=250	=250	=250
2D	2F	1.A	2e]
2AA	2E	.	4d
.	.	.	4c
1D	1F	.	1d
.	.	2B	.
=251	=251	=251	=251
1C	[0El	0c	[0el
1AA	.	.	.
=252	=252	=252	=252
0E;l	0E;]	0B;l	0e;]
==	==	==	==
*-	*-	*-	*-
!!!RDF**kern: l=long note in original notation
!!!system-decoration: s1,s2,s3,s4
!!!RDF**kern: i = editorial accidental
!!!ENC: Chris Gage 04-23-2014
!!!END: 2014/04/23
!!!EED: Jesse Rodin
!!!EEV: 2021/03/25
!!attribution-level@Jos: 4b (almost certainly by another composer [double question mark])
!!!ONB: Translated from MusicXML and edited on 2021/03/25 by Craig Sapp
!!muse2ps: C^probably by Carpentras\n@{SCT}^i2I150v85,85,85,150c120
